X: 1506
T: Nikrîz Sirto
C: Tanburî Cemil Bey
O: Turkey
F: http://compmusic.upf.edu/node/140
N: nikriz--sirto--nimsofyan--nikriz_sirto--tanburi_cemil_bey
N: makam= nikriz
N: form= sirto
N: usul= nimsofyan = 2/4
M: 2/4
L: 1/16
K: C _7/8B ^3/4f ^c 
Q: 1/4=84
%%MIDI tuningsystem comma53
d3/2a/ag g3/2=f/f^e  | =f3/2^e/fg fefe  | \
w:   |   | 
de=fg a3/2g/fe  | 
w:   | 
dg=fe dcd2  | d3/2a/ag g3/2=f/f^e  | \
w:   |   | 
=f3/2^e/fg fefe  | 
w:   | 
de=fg a3/2g/fe  | dg=fe dcd2  | d=fed (3cde(3ef^f  | 
w:   |   |   | 
g2g=f/e/ f3/2e/ed  | c3/2e/dc BAG^F  | \
w:   |   | 
Gg=fe dcd3fed (3cde(3ef^f  | 
w:   | 
g2g=f/e/ fg/f/ed  | c3/2e/dc B3/2A/G2  | \
w:   |   | 
A3/2c/BA G^FG2  | 
w:   | 
zg/=f/ed (3cde(3ef^f  | (3gag=fe (3fgfed  | 
w:   |   | 
(3e=fedc BAG^F  | Gg=fe dcd2  | zg/=f/ed (3cde(3ef^f  | 
w:   |   |   | 
g2=f/e/d/e/ f2ed  | e2dc BAG2  | AcBA (3AG^FG2  | 
w:   |   |   | 
zGAB cBdc  | B3/2d/(3c_1/4B^A Bcde  | \
w:   |   | 
=fedc BAG^F  | 
w:   | 
G3/2g/=fe dcd2  | dGAB cBdc  | Bd(3c_1/4B^A Bcde  | 
w:   |   |   | 
=f3/2e/dc B3/2A/G2  | AcBA G^FG2  | z=c/e/dc =B3/2G/d2  | 
w:   |   |   | 
z=c/e/dc =Bc^cd  | z=c/e/dc =B3/2G/d2  | \
w:   |   | 
z=c/e/dc =BAG^F  | 
w:   | 
GA=B=c dBcA  | G3G G2G2  | z=c/e/dc =B3/2G/d2  | \
w:   |   |   | 
z=c/e/dc =Bc^cd  | 
w:   | 
z=c/e/dc =B3/2G/d2  | z=c/e/dc =BAG^F  | \
w:   |   | 
GA=B=c dBcA  | 
w:   | 
G3G G2G2  | |


